X:1
T: The Circus
C:
R:Reel
Q: 232
K:A
M:4/4
L:1/8
|:F|EF AB c2 Ac|dB cA FF FA|EF AB c2 Ac|dB ec AA AF|
EF AB c2 Ac|dB cA FF FA|EF AB c2 Ac|dB ec AA AB|
Ac ef ec Ac|dB cA FF FB|Ac ef ec Ac|dB ec AA Ag|
ab af ec Ac|dB cA FF FA|EF AB c2 Ac|dB ec AA A:|
